public/static/img/flag/ch.svg

<svg width="30" height="30" viewBox="0 0 30 30" fill="none" xmlns="http://www.w3.org/2000/svg">
<circle cx="15" cy="15" r="13" fill="#E22D2D"/>
<g clip-path="url(#clip0_136_1843)">
<path d="M0 15C0 18.9782 1.58035 22.7936 4.3934 25.6066C7.20644 28.4196 11.0218 30 15 30C18.9782 30 22.7936 28.4196 25.6066 25.6066C28.4196 22.7936 30 18.9782 30 15C30 11.0218 28.4196 7.20644 25.6066 4.3934C22.7936 1.58035 18.9782 0 15 0C11.0218 0 7.20644 1.58035 4.3934 4.3934C1.58035 7.20644 0 11.0218 0 15Z" fill="#D80027"/>
<path d="M16.5487 11.348C16.2078 12.7659 15.6021 12.4955 15.3048 13.732C13.5539 13.311 12.4755 11.5503 12.8965 9.79921C13.3173 8.04826 15.0783 6.9699 16.8293 7.39089C16.2347 9.86396 16.8536 10.0798 16.5487 11.348ZM12.0051 12.3987C13.2483 13.161 12.8039 13.6536 13.888 14.3184C12.9466 15.8536 10.9388 16.335 9.40356 15.3936C7.86835 14.4521 7.38688 12.4443 8.32837 10.9091C10.4967 12.2387 10.8931 11.7168 12.0051 12.3987ZM11.6003 17.0447C12.7095 16.0979 13.0405 16.6727 14.0079 15.8471C15.1771 17.2169 15.0144 19.2752 13.6448 20.4444C12.2749 21.6136 10.2167 21.4508 9.04761 20.0812C10.982 18.4298 10.6081 17.8914 11.6003 17.0447ZM15.8938 18.8654C15.336 17.5179 15.985 17.3805 15.4987 16.2056C17.1627 15.5169 19.0701 16.3076 19.7588 17.9716C20.4474 19.6356 19.6566 21.5429 17.9926 22.2316C17.0202 19.8814 16.3927 20.0706 15.8938 18.8654ZM18.9522 15.3445C17.4983 15.4586 17.5681 14.7988 16.3004 14.8983C16.1596 13.1031 17.501 11.5333 19.2964 11.3924C21.0917 11.2518 22.6615 12.5931 22.8022 14.3886C20.2664 14.5874 20.2524 15.2426 18.9522 15.3445Z" fill="#F0F0F0"/>
</g>
<defs>
<clipPath id="clip0_136_1843">
<rect width="30" height="30" fill="white"/>
</clipPath>
</defs>
</svg>

<svg width="30" height="30" fill="none" xmlns="http://www.w3.org/2000/svg"><circle cx="15" cy="15" r="13" fill="#E22D2D"/><g clip-path="url(#a)"><path d="M0 15a15 15 0 1 0 30 0 15 15 0 0 0-30 0Z" fill="#D80027"/><path d="M16.549 11.348c-.341 1.418-.947 1.147-1.244 2.384a3.261 3.261 0 0 1 1.524-6.341c-.594 2.473.025 2.689-.28 3.957Zm-4.544 1.05c1.243.763.799 1.256 1.883 1.92a3.26 3.26 0 0 1-5.56-3.409c2.169 1.33 2.565.808 3.677 1.49Zm-.405 4.647c1.11-.947 1.44-.372 2.408-1.198a3.261 3.261 0 0 1-4.96 4.234c1.934-1.651 1.56-2.19 2.552-3.036Zm4.294 1.82c-.558-1.347.091-1.484-.395-2.66a3.261 3.261 0 0 1 2.494 6.027c-.973-2.35-1.6-2.161-2.1-3.367Zm3.058-3.52c-1.454.114-1.384-.546-2.652-.447a3.261 3.261 0 0 1 6.502-.51c-2.536.2-2.55.855-3.85.957Z" fill="#F0F0F0"/></g><defs><clipPath id="a"><path fill="#fff" d="M0 0h30v30H0z"/></clipPath></defs></svg>
